X: 37314
T: Skye Boat Song, The
R: waltz
M: 3/4
K: Gmajor
|:D3 E D2|G4 G2|A3 B A2|d6|B3 ^A B2|1 E4 E2|D6|D6:|2 E4 F2|G6|G6||
B3 G B2|B6|A3 E A2|A6|G3 E F2|G3 F G2|E6|E6|
B3 G B2|B3 A G2|A3 E A2|A4 F2|G3 E F2|G3 A G2|E6|G4 E2|
D3 E D2|G3 F G2|A3 B A2|d4 c2|B3 ^A B2|E4 E2|D6|D6|
D2 E2 D2|G4 G2|A2 B2 A2|d6|B2 ^A2 B2|E4 F2|G6|G6||

